X: 3
T: Dinky's Reel
I: RJ R-136 A Mix reel
Z: Transcribed to abc by Mary Lou Knack
R: reel
M: C|
K: Amix
ed "^A"| "A"cdBc ABcd | egfd edBd |\
[1,3 "G"gB (3.B.B.B gBaB | gB (3.B.B.B gf :|\
[2,4 "G"gfge "D"dfed | "E7"cdBc "A"A2 :|
e^g "^B"|:\
"A"aA (3.A.A.A aAbA | aA (3.A.A.A agef |\
[1,3 "G"gB (3.B.B.B gBaB | gB (3.B.B.B gefg :|\
[2   "G"gfge "D"dfed | "E7"cdBc "A"A2 :|
y2 "^B4"|\
"A"aA (3.A.A.A "G"gA (3.A.A.A | "D"fA (3.A.A.A "A"e2ef |\
"G"gfge "D"dfed | "E7"cdBc "A"A2 |]

